!!!OTL: "Der Schiffer" WI D' WOLKERN AM HIMMEL
!!!ARE: Europa, Mitteleuropa, Steiermark
!!!SCT: Z1197
!!!YEM: Copyright 1995, estate of Helmut Schaffrath.
**kern
*ICvox
*Ivox
*M3/4
*k[f#]
*G:
{4d
=1
8b
8d
4g
4b
=2
8dd
8ee
4dd}
{4d
=3
8b
8dd
4gg
4b
=4
2dd}
{4dd
=5
8cc
8d
8f#
8a
8dd
8cc
=6
8b
8dd
4g}
{4b
=7
8a
8f#
8d
8cc
8b
8a
=8
2g}
{16dd
16ee
8dd
=9
8cc
8aa
4aa
16dd
16ee
8dd
=10
8b
8bb
4bb}
{16dd
16ee
8dd
=11
8dd
8ccc
8aa
8ff#
8dd
8ff#
=12
2gg}
==
!!!AGN: Liebes - Lied
!! Die letzten 4 Takte werden auf die Silbe 'la' gesungen.
!!!ONB: ESAC (Essen Associative Code) Database: ZUCCAL
!!!AMT: simple triple
!!!AIN: vox
!!!EED: Helmut Schaffrath
!!!EEV: 1.0
*-
